X: 35
M: C
L: 1/8
K: G
|:\
cBAG g2d2 | e2g2 d2B2 | c2de d2F2 | G6 d2 |
McMBMAMG  g3d | e2g2 f2d2 | c3d B2G2 | ^CEAG TF2D2 |\
at Hamnavoe, whaur me grandfaider bedd, da brucks o' da auld
resting chair dat he sat upo whin he wis learnin me ta play
da fiddle.


